X: 20611
M: C|
L: 1/8
K: Bb
V: 1 staves=3
z2 |\
|: (3(fga) |\
bfdB Aceg | fedc BAGF | ecec dBdB | A2F2 F2A2 |\
V: 2
z2 |\
[F2D2]DC FDFD | ECEF FDFA | F[gd]cB DGFE | D2D2 D2 :|
|: z2 |\
fdBF FAce | dcBG DFED | cAcA BDBD | F2D2 D2[F2D2] |\
ECEF cBA[FD] | FDFA dcBA | Dffe dcBA | D2D2 D2 :|
V: 3 clef=bass middle=d
z2 |\
|: z2 |\
e2ef e2e2 | f2f2 f2f2 | B2d2 e2f2 | B2B2 B2 :|


